X:1
T:Title
%%score { 1 | 2 }
L:1/8
M:4/4
K:Eb
V:1 treble nm="Grand Piano"
V:2 bass 
V:1
 z4[Q:1/4=100] [B,EG]3 [B,EG] | [CEA]2 [B,EG]2 [B,DG]2 [A,DF]2 | [G,E]4 [A,CA]3 [CFA] | %3
 [CFc]2 [CFA]2 [B,FA]2 [B,EG]2 |[M:2/4] [B,DF]4 | [B,EG]2 [B,=EG]2 | %6
[M:4/4] [A,FA]2 [_DGB]2 [CAc]2 [FAd]2 | [EGe]4 [EAc]2 [CFA]2 | [B,EG]4 [A,DF]4 |[M:2/4] [G,E]4 |] %10
V:2
 z4 E,3 E, | A,,2 E,2 B,,2 B,,2 | C,4 F,3 F, | A,2 F,2 D,2 E,2 |[M:2/4] B,,4 | E,2 C,2 | %6
[M:4/4] F,2 E,2 A,2 F,2 | C,4 A,,2 A,,2 | B,,4 B,,4 |[M:2/4] E,4 |] %10

